brandFactory_export/1.Light/Error_1Light.svg

<?xml version="1.0" encoding="UTF-8"?>
<svg width="24px" height="24px" viewBox="0 0 24 24" version="1.1" xmlns="http://www.w3.org/2000/svg" xmlns:xlink="http://www.w3.org/1999/xlink">
    <title>1.Light/Error_1Light</title>
    <g id="Symbols" stroke="none" stroke-width="1" fill="none" fill-rule="evenodd">
        <g id="1.Light/Error_1Light" fill="#5CB615" fill-rule="nonzero">
            <path d="M22.6218487,22.1310924 L22.6319328,7.94285714 L19.1831933,7.92268908 C18.0638655,7.91260504 17.1731092,7.57983193 16.507563,6.90756303 C15.3781513,5.75462185 15.3983193,4.05714286 15.3983193,3.97983193 L15.3579832,1.02184874 L7.25714286,1.03193277 C6.90756303,1.03193277 6.61848739,1.31092437 6.61512605,1.66386555 L6.61512605,5.84537815 L7.37815126,4.35630252 C7.60672269,3.88907563 8.16806723,3.69747899 8.63529412,3.92605042 C8.63865546,3.92941176 8.64201681,3.92941176 8.6487395,3.93277311 C8.83697479,4.02016807 8.99159664,4.16806723 9.08235294,4.36638655 L16.2352941,18.6689076 C16.3428571,18.8739496 16.3731092,19.1327731 16.2957983,19.3680672 C16.1815126,19.7680672 15.8117647,20.0436975 15.394958,20.0369748 L15.3613445,20.0369748 L6.62521008,20.0067227 L6.62521008,21.9798319 C6.61512605,22.2151261 6.66554622,22.3831933 6.77310924,22.4941176 C6.90420168,22.6420168 7.1092437,22.6722689 7.25714286,22.6722689 L22.1042017,22.6521008 C22.3966387,22.6521008 22.6218487,22.4134454 22.6218487,22.1310924 L22.6218487,22.1310924 Z M0.998319328,19.0420168 L6.62521008,19.0420168 L15.3815126,19.0521008 L8.20168067,4.79663866 L6.61512605,7.93277311 L5.62352941,9.88571429 L0.998319328,19.0420168 Z M16.4235294,1.25714286 C16.4033613,1.23361345 16.3798319,1.21344538 16.3563025,1.19663866 L16.3966387,3.97647059 C16.3966387,4.06386555 16.4067227,5.38487395 17.2302521,6.21512605 C17.697479,6.68907563 18.3596639,6.93445378 19.189916,6.93445378 L22.3294118,6.95462185 C22.3260504,6.95462185 16.4235294,1.25714286 16.4235294,1.25714286 L16.4235294,1.25714286 Z M23.3243697,6.54117647 C23.512605,6.72941176 23.6235294,6.98823529 23.6235294,7.25042017 L23.6134454,22.1277311 C23.6134454,22.9546218 22.9411765,23.6369748 22.107563,23.6369748 L7.25042017,23.6571429 C6.76638655,23.6571429 6.3394958,23.4789916 6.05378151,23.1764706 C5.75798319,22.8605042 5.61680672,22.4369748 5.63697479,21.9529412 L5.63697479,20.010084 L0.961344538,19.989916 C0.43697479,20.0302521 0.0100840336,19.5764706 0,19.0521008 C0,18.8941176 0.0403361345,18.7462185 0.11092437,18.5983193 L5.62689076,7.78151261 L5.62689076,1.6605042 C5.62689076,0.773109244 6.35966387,0.043697479 7.25042017,0.043697479 L15.8487395,0.0336134454 C16.3327731,0.0134453782 16.7495798,0.191596639 17.1159664,0.554621849 L23.3243697,6.54117647 Z M8.25210084,15.210084 C7.97983193,15.2067227 7.76134454,14.9882353 7.75798319,14.7159664 L7.75798319,9.3512605 C7.75798319,9.0789916 7.97983193,8.85714286 8.25210084,8.85714286 C8.52436975,8.85714286 8.74621849,9.0789916 8.74621849,9.3512605 L8.74621849,14.7159664 C8.74621849,14.9815126 8.52773109,15.2067227 8.25210084,15.210084 L8.25210084,15.210084 Z M8.25882353,17.3747899 C7.83529412,17.3747899 7.48907563,17.0319328 7.48571429,16.6084034 C7.48571429,16.1815126 7.83193277,15.8352941 8.25882353,15.8352941 C8.68571429,15.8352941 9.03193277,16.1815126 9.03193277,16.6084034 C9.03193277,17.0319328 8.68907563,17.3747899 8.25882353,17.3747899 Z" id="Error_1Light"></path>
        </g>
    </g>
</svg>

<svg width="24" height="24" viewBox="0 0 24 24" xmlns="http://www.w3.org/2000/svg"><path d="M22.622 22.131l.01-14.188-3.449-.02c-1.12-.01-2.01-.343-2.675-1.015-1.13-1.153-1.11-2.85-1.11-2.928l-.04-2.958-8.1.01a.64.64 0 00-.643.632v4.181l.763-1.489a.938.938 0 011.257-.43l.014.007a.878.878 0 01.433.433l7.153 14.303a.914.914 0 01.06.7.923.923 0 01-.9.668h-.034l-8.736-.03v1.973c-.01.235.04.403.148.514.131.148.336.178.484.178l14.847-.02a.519.519 0 00.518-.52zM.998 19.042h5.627l8.757.01-7.18-14.255-1.587 3.136-.991 1.953-4.626 9.156zM16.424 1.257a.378.378 0 00-.068-.06l.04 2.78c0 .087.01 1.408.834 2.238.467.474 1.13.72 1.96.72l3.14.02c-.004 0-5.906-5.698-5.906-5.698zm6.9 5.284c.189.188.3.447.3.71l-.01 14.877a1.51 1.51 0 01-1.506 1.509l-14.858.02c-.484 0-.91-.178-1.196-.48-.296-.316-.437-.74-.417-1.224V20.01l-4.676-.02c-.524.04-.95-.414-.961-.938 0-.158.04-.306.11-.454L5.628 7.782V1.66C5.627.773 6.36.044 7.25.044l8.599-.01c.484-.02.9.158 1.267.52l6.208 5.987zm-15.072 8.67a.5.5 0 01-.494-.495V9.351a.495.495 0 01.988 0v5.365a.5.5 0 01-.494.494zm.007 2.164a.774.774 0 01-.773-.767.773.773 0 011.546 0 .768.768 0 01-.773.767z" fill="#5CB615" fill-rule="nonzero"/></svg>
